X:1
T: Effie Glasgow's Hornpipe
C:William Macpherson
R:Reel
Q: 232
K:D
M:4/4
L:1/8
|:A,|D2 FD AD FD|B2 DG Bd BG|FA dA FD AF|EA ^GB A=G FE|
D2 FD AD FD|B2 DG Bd BG|FA dA ^GB ed|ca gc d2 fg|
a^g ag af dA|gf gf ge cA|FA dA ^GB ed|ca ^gb a2 A1/2G1/2F1/2E1/2|
D2 FD AD FD|B2 dB GB dB|A2 ^ga ((3=gec) ((3AGE)|D2 d2 D2:|
